pp/bell-off.svg

<svg viewBox="0 0 20 20" fill="none" xmlns="http://www.w3.org/2000/svg" height="1em" width="1em">
  <path d="M7.5 17C7.5 16.4477 7.94772 16 8.5 16C9.05229 16 9.5 16.4477 9.5 17C9.5 17.2761 9.72386 17.5 10 17.5C10.2761 17.5 10.5 17.2761 10.5 17C10.5 16.4477 10.9477 16 11.5 16C12.0523 16 12.5 16.4477 12.5 17C12.5 18.3807 11.3807 19.5 10 19.5C8.61929 19.5 7.5 18.3807 7.5 17Z" fill="currentColor"/>
  <path fill-rule="evenodd" clip-rule="evenodd" d="M18 14.5C18 13.3482 17.4284 12.2866 16.5 11.6488V9C16.5 5.68629 13.8137 3 10.5 3H9.5C6.18629 3 3.5 5.68629 3.5 9V11.6488C2.57159 12.2867 2 13.3482 2 14.5C2 15.8807 3.11929 17 4.5 17H15.5C16.8807 17 18 15.8807 18 14.5ZM14.5 12.8819L15.0904 13.147L15.1434 13.1709C15.665 13.4075 16 13.9273 16 14.5C16 14.7761 15.7761 15 15.5 15H4.5C4.22386 15 4 14.7761 4 14.5C4 13.9273 4.335 13.4075 4.85658 13.1709L4.90959 13.147L5.5 12.8819V9C5.5 6.79086 7.29086 5 9.5 5H10.5C12.7091 5 14.5 6.79086 14.5 9V12.8819Z" fill="currentColor"/>
  <path d="M9 1.5C9 0.947715 9.44772 0.5 10 0.5C10.5523 0.5 11 0.947716 11 1.5L11 4C11 4.55229 10.5523 5 10 5C9.44771 5 9 4.55228 9 4L9 1.5Z" fill="currentColor"/>
  <path d="M0.81933 4.52526C0.415414 4.14861 0.393317 3.51583 0.769974 3.11191C1.14663 2.708 1.77941 2.6859 2.18333 3.06256L18.2232 18.0199C18.6271 18.3966 18.6492 19.0294 18.2725 19.4333C17.8959 19.8372 17.2631 19.8593 16.8592 19.4827L0.81933 4.52526Z" fill="currentColor"/>
</svg>

<svg viewBox="0 0 20 20" fill="none" xmlns="http://www.w3.org/2000/svg" height="1em" width="1em">
  <path d="M7.5 17a1 1 0 1 1 2 0 .5.5 0 0 0 1 0 1 1 0 1 1 2 0 2.5 2.5 0 0 1-5 0Z" fill="currentColor"/>
  <path fill-rule="evenodd" clip-rule="evenodd" d="M18 14.5a3.46 3.46 0 0 0-1.5-2.851V9a6 6 0 0 0-6-6h-1a6 6 0 0 0-6 6v2.649A3.46 3.46 0 0 0 2 14.5 2.5 2.5 0 0 0 4.5 17h11a2.5 2.5 0 0 0 2.5-2.5Zm-3.5-1.618.59.265.053.024c.522.237.857.756.857 1.329a.5.5 0 0 1-.5.5h-11a.5.5 0 0 1-.5-.5c0-.573.335-1.092.857-1.33l.053-.023.59-.265V9a4 4 0 0 1 4-4h1a4 4 0 0 1 4 4v3.882Z" fill="currentColor"/>
  <path d="M9 1.5a1 1 0 0 1 2 0V4a1 1 0 1 1-2 0V1.5ZM.82 4.525a1 1 0 1 1 1.363-1.462l16.04 14.957a1 1 0 0 1-1.364 1.463L.82 4.525Z" fill="currentColor"/>
</svg>
